packages/ffe-icons/icons/filled/md/other_houses.svg

<svg xmlns="http://www.w3.org/2000/svg" height="24" viewBox="0 -960 960 960" width="24"><path d="M180.001-212.309v-298.077l-50.77 39.462q-10.538 7.693-22.307 6.077-11.769-1.615-19.46-12.153-7.693-10.539-5.962-22.307 1.73-11.769 11.653-19.462L435.616-781.46q9.976-7.231 21.313-10.846 11.337-3.615 23.127-3.615t22.954 3.615q11.165 3.615 20.99 10.846l343.46 262.691q9.923 7.693 11.346 19.462 1.423 11.768-6.269 22.378-7.692 9.851-19.461 11.467-11.769 1.615-21.692-6.077l-51.385-38.847v298.077q0 29.827-21.241 51.067-21.24 21.241-51.067 21.241H252.309q-29.827 0-51.067-21.241-21.241-21.24-21.241-51.067ZM320-364.616q14.692 0 25.038-10.346T355.384-400q0-14.692-10.346-25.038T320-435.384q-14.692 0-25.038 10.346T284.616-400q0 14.692 10.346 25.038T320-364.616Zm160 0q14.692 0 25.038-10.346T515.384-400q0-14.692-10.346-25.038T480-435.384q-14.692 0-25.038 10.346T444.616-400q0 14.692 10.346 25.038T480-364.616Zm160 0q14.692 0 25.038-10.346T675.384-400q0-14.692-10.346-25.038T640-435.384q-14.692 0-25.038 10.346T604.616-400q0 14.692 10.346 25.038T640-364.616Z"/></svg>

<svg xmlns="http://www.w3.org/2000/svg" height="24" viewBox="0 -960 960 960" width="24"><path d="M180-212.31v-298.08l-50.77 39.47q-10.54 7.69-22.31 6.07-11.76-1.61-19.46-12.15-7.69-10.54-5.96-22.31 1.73-11.77 11.66-19.46l342.46-262.69q9.97-7.23 21.31-10.85 11.34-3.61 23.13-3.61t22.95 3.61q11.16 3.62 20.99 10.85l343.46 262.69q9.92 7.69 11.35 19.46 1.42 11.77-6.27 22.38-7.7 9.85-19.46 11.47-11.77 1.61-21.7-6.08L780-510.39v298.08q0 29.83-21.24 51.07Q737.52-140 707.69-140H252.31q-29.83 0-51.07-21.24Q180-182.48 180-212.31Zm140-152.31q14.69 0 25.04-10.34 10.34-10.35 10.34-25.04t-10.34-25.04q-10.35-10.34-25.04-10.34t-25.04 10.34q-10.34 10.35-10.34 25.04t10.34 25.04q10.35 10.34 25.04 10.34Zm160 0q14.69 0 25.04-10.34 10.34-10.35 10.34-25.04t-10.34-25.04q-10.35-10.34-25.04-10.34t-25.04 10.34q-10.34 10.35-10.34 25.04t10.34 25.04q10.35 10.34 25.04 10.34Zm160 0q14.69 0 25.04-10.34 10.34-10.35 10.34-25.04t-10.34-25.04q-10.35-10.34-25.04-10.34t-25.04 10.34q-10.34 10.35-10.34 25.04t10.34 25.04q10.35 10.34 25.04 10.34Z"/></svg>
